flaticon/hand-gestures/tap-92.svg

<svg xmlns="http://www.w3.org/2000/svg" width="32" height="32" viewBox="0 0 24 24">
    <path d="M 12 9.601562 C 12.238281 9.601562 12.398438 9.441406 12.398438 9.199219 L 12.398438 4.921875 C 12.398438 4.601562 12.238281 4.359375 12 4.199219 C 11.761719 4.039062 11.441406 4.039062 11.199219 4.199219 C 11.160156 4.199219 11.160156 4.199219 11.121094 4.238281 L 8.398438 6.800781 L 6.398438 6.800781 C 6.160156 6.800781 6 6.960938 6 7.199219 L 6 10.398438 C 6 10.640625 6.160156 10.800781 6.398438 10.800781 L 8.359375 10.800781 C 8.359375 10.800781 8.398438 10.839844 8.441406 10.839844 L 8.878906 11.441406 C 8.960938 11.558594 9.078125 11.601562 9.199219 11.601562 C 9.28125 11.601562 9.359375 11.558594 9.441406 11.558594 C 9.601562 11.441406 9.640625 11.160156 9.519531 11 L 9.039062 10.359375 C 9 10.320312 8.960938 10.28125 8.921875 10.238281 L 8.878906 10.199219 C 8.71875 10.078125 8.558594 10 8.398438 10 L 6.800781 10 L 6.800781 7.601562 L 8.398438 7.601562 C 8.519531 7.601562 8.679688 7.558594 8.800781 7.480469 C 8.839844 7.480469 8.839844 7.480469 8.878906 7.441406 L 11.601562 4.878906 L 11.601562 9.199219 C 11.601562 9.441406 11.761719 9.601562 12 9.601562 Z M 12 9.601562"/>
    <path d="M 9.199219 16.800781 L 2.238281 16.800781 C 1.558594 16.800781 0.800781 16.320312 0.800781 15.601562 L 0.800781 2.199219 C 0.800781 1.480469 1.519531 0.800781 2.238281 0.800781 L 21.800781 0.800781 C 22.519531 0.800781 23.199219 1.480469 23.199219 2.199219 L 23.199219 13.601562 C 23.199219 13.839844 23.359375 14 23.601562 14 C 23.839844 14 24 13.839844 24 13.601562 L 24 2.199219 C 24 1.039062 22.960938 0 21.800781 0 L 2.238281 0 C 1.078125 0 0 1.039062 0 2.199219 L 0 15.601562 C 0 16.839844 1.160156 17.601562 2.238281 17.601562 L 9.199219 17.601562 C 9.441406 17.601562 9.601562 17.441406 9.601562 17.199219 C 9.601562 16.960938 9.441406 16.800781 9.199219 16.800781 Z M 9.199219 16.800781"/>
    <path d="M 23.878906 16.121094 L 19.441406 11.519531 C 18.441406 10.558594 17.121094 10 15.761719 10 C 14.398438 10 13.039062 10.519531 12.078125 11.519531 C 11.121094 12.519531 10.558594 13.800781 10.558594 15.199219 C 10.558594 16.601562 11.078125 17.878906 12.078125 18.878906 L 17.320312 23.878906 C 17.398438 23.960938 17.519531 24 17.601562 24 C 17.71875 24 17.800781 23.960938 17.839844 23.878906 C 18 23.71875 18 23.480469 17.839844 23.320312 L 12.640625 18.320312 C 11.800781 17.480469 11.359375 16.398438 11.359375 15.199219 C 11.359375 14 11.800781 12.921875 12.640625 12.078125 C 13.480469 11.238281 14.558594 10.800781 15.761719 10.800781 C 16.960938 10.800781 18.039062 11.238281 18.878906 12.078125 L 23.320312 16.679688 C 23.480469 16.839844 23.71875 16.839844 23.878906 16.679688 C 24.039062 16.519531 24.039062 16.28125 23.878906 16.121094 Z M 23.878906 16.121094"/>
    <path d="M18.28125 12.640625C16.878906 11.238281 14.601562 11.238281 13.199219 12.640625 11.800781 14.039062 11.800781 16.320312 13.199219 17.71875L14.878906 19.398438C15.160156 19.640625 15.480469 19.800781 15.839844 19.800781 15.878906 19.800781 15.921875 19.800781 15.921875 19.800781 18.28125 19.640625 20.199219 17.71875 20.359375 15.359375 20.359375 14.960938 20.238281 14.601562 19.960938 14.320312zM13.800781 17.199219C12.679688 16.078125 12.679688 14.320312 13.800781 13.199219 14.878906 12.121094 16.679688 12.121094 17.761719 13.199219L19.371094 14.851562C19.195312 14.9375 18.996094 15.019531 18.800781 15.121094 18.160156 15.441406 17.441406 15.761719 16.878906 16.320312 16.320312 16.921875 15.921875 17.679688 15.601562 18.359375 15.542969 18.511719 15.476562 18.664062 15.40625 18.804688zM16.15625 19.015625C16.203125 18.917969 16.242188 18.820312 16.28125 18.71875 16.601562 18.039062 16.960938 17.359375 17.441406 16.878906 17.921875 16.398438 18.519531 16.121094 19.121094 15.839844 19.269531 15.785156 19.421875 15.71875 19.570312 15.644531 19.332031 17.394531 17.914062 18.800781 16.15625 19.015625zM13.519531 9.078125C13.601562 9.160156 13.679688 9.199219 13.800781 9.199219 13.921875 9.199219 14.039062 9.160156 14.078125 9.078125 14.519531 8.640625 14.761719 8.039062 14.761719 7.398438 14.761719 6.761719 14.519531 6.160156 14.078125 5.71875 13.921875 5.558594 13.679688 5.558594 13.519531 5.71875 13.359375 5.878906 13.359375 6.121094 13.519531 6.28125 13.839844 6.601562 14 6.960938 14 7.398438 14 7.839844 13.800781 8.238281 13.519531 8.519531 13.359375 8.679688 13.359375 8.921875 13.519531 9.078125zM15.519531 9.078125C15.601562 9.160156 15.679688 9.199219 15.800781 9.199219 15.921875 9.199219 16.039062 9.160156 16.078125 9.078125 16.519531 8.640625 16.761719 8.039062 16.761719 7.398438 16.761719 6.761719 16.519531 6.160156 16.078125 5.71875 15.921875 5.558594 15.679688 5.558594 15.519531 5.71875 15.359375 5.878906 15.359375 6.121094 15.519531 6.28125 15.839844 6.601562 16 6.960938 16 7.398438 16 7.839844 15.800781 8.238281 15.519531 8.519531 15.359375 8.679688 15.359375 8.921875 15.519531 9.078125zM17.519531 9.078125C17.601562 9.160156 17.679688 9.199219 17.800781 9.199219 17.921875 9.199219 18.039062 9.160156 18.078125 9.078125 18.519531 8.640625 18.761719 8.039062 18.761719 7.398438 18.761719 6.761719 18.519531 6.160156 18.078125 5.71875 17.921875 5.558594 17.679688 5.558594 17.519531 5.71875 17.359375 5.878906 17.359375 6.121094 17.519531 6.28125 17.839844 6.601562 18 6.960938 18 7.398438 18 7.839844 17.800781 8.238281 17.519531 8.519531 17.359375 8.679688 17.359375 8.921875 17.519531 9.078125zM17.519531 9.078125"/>
</svg>

<svg xmlns="http://www.w3.org/2000/svg" width="32" height="32" viewBox="0 0 24 24">
    <path d="M12 9.602c.238 0 .398-.16.398-.403V4.922c0-.32-.16-.563-.398-.723a.727.727 0 0 0-.8 0c-.04 0-.04 0-.079.04L8.398 6.8h-2C6.16 6.8 6 6.96 6 7.199v3.2c0 .242.16.402.398.402H8.36s.04.039.082.039l.438.601c.082.118.2.16.32.16.082 0 .16-.042.242-.042.16-.118.2-.399.079-.559l-.48-.64c-.04-.04-.08-.079-.118-.122l-.043-.039c-.16-.12-.32-.199-.48-.199H6.8V7.602h1.597a.8.8 0 0 0 .403-.122c.039 0 .039 0 .078-.039l2.723-2.562v4.32c0 .242.16.403.398.403zm0 0"/>
    <path d="M9.2 16.8H2.237c-.68 0-1.437-.48-1.437-1.198V2.199C.8 1.48 1.52.801 2.238.801h19.563c.719 0 1.398.68 1.398 1.398v11.403c0 .238.16.398.403.398.238 0 .398-.16.398-.398V2.199C24 1.04 22.96 0 21.8 0H2.239C1.078 0 0 1.04 0 2.2v13.402c0 1.238 1.16 2 2.238 2H9.2c.242 0 .403-.16.403-.403 0-.238-.16-.398-.403-.398zm0 0"/>
    <path d="M23.879 16.121L19.44 11.52c-1-.961-2.32-1.52-3.68-1.52-1.363 0-2.722.52-3.683 1.52-.957 1-1.52 2.28-1.52 3.68 0 1.402.52 2.679 1.52 3.679l5.242 5c.078.082.2.121.282.121.117 0 .199-.04.238-.121a.385.385 0 0 0 0-.559l-5.2-5a4.325 4.325 0 0 1-1.28-3.12c0-1.2.44-2.278 1.28-3.122.84-.84 1.919-1.277 3.122-1.277 1.199 0 2.277.437 3.117 1.277l4.441 4.602c.16.16.399.16.559 0a.385.385 0 0 0 0-.559zm0 0"/>
    <path d="M18.281 12.64a3.595 3.595 0 0 0-5.082 0 3.598 3.598 0 0 0 0 5.079l1.68 1.68c.281.242.601.402.96.402h.083c2.36-.16 4.277-2.082 4.437-4.442 0-.398-.12-.757-.398-1.039zm-4.48 4.56a2.799 2.799 0 0 1 0-4c1.078-1.079 2.879-1.079 3.96 0l1.61 1.652c-.176.085-.375.168-.57.27-.64.32-1.36.64-1.922 1.198-.559.602-.957 1.36-1.277 2.04a5.108 5.108 0 0 1-.196.445zm2.355 1.816a3.97 3.97 0 0 0 .125-.297c.32-.68.68-1.36 1.16-1.84.48-.48 1.079-.758 1.68-1.04.149-.054.3-.12.45-.194a3.957 3.957 0 0 1-3.415 3.37zm0 0M13.52 9.078c.082.082.16.121.28.121.122 0 .24-.039.278-.12a2.35 2.35 0 0 0 .684-1.68c0-.637-.242-1.239-.684-1.68a.385.385 0 0 0-.558 0 .39.39 0 0 0 0 .562c.32.32.48.68.48 1.117 0 .442-.2.84-.48 1.122a.385.385 0 0 0 0 .558zm0 0M15.52 9.078c.082.082.16.121.28.121.122 0 .24-.039.278-.12a2.35 2.35 0 0 0 .684-1.68c0-.637-.242-1.239-.684-1.68a.385.385 0 0 0-.558 0 .39.39 0 0 0 0 .562c.32.32.48.68.48 1.117 0 .442-.2.84-.48 1.122a.385.385 0 0 0 0 .558zm0 0M17.52 9.078c.082.082.16.121.28.121.122 0 .24-.039.278-.12a2.35 2.35 0 0 0 .684-1.68c0-.637-.242-1.239-.684-1.68a.385.385 0 0 0-.558 0 .39.39 0 0 0 0 .562c.32.32.48.68.48 1.117 0 .442-.2.84-.48 1.122a.385.385 0 0 0 0 .558zm0 0"/>
</svg>
